; generated by PrusaSlicer 2.0.0-rc+linux64 on 2020-01-30 at 20:33:28

; 

; external perimeters extrusion width = 0.40mm
; perimeters extrusion width = 0.40mm
; infill extrusion width = 0.60mm
; solid infill extrusion width = 0.40mm
; top infill extrusion width = 0.40mm

M107
M140 S60
M104 S205 ; start heating up without waiting
G28 ; home all axes
G90 ; set absolute positioning
G1 Z15 F5000 ; move nozzle up to 15mm
M190 S60
M109 S205 ; set temps and wait
G1 Z0.5 F5000 ; move nozzle down to 0.5
G92 E0
G1 X20 E15 F250 ; print temporary line to clean nozzle
G92 E0 ;end of michi
; Filament gcode
G21 ; set units to millimeters
G90 ; use absolute coordinates
M82 ; use absolute distances for extrusion
G92 E0
G1 E-3.50000 F3000.00000
G92 E0
G1 Z0.200 F5400.000
G1 X72.612 Y81.215
G1 E3.50000 F3000.00000
M204 S2000
G1 F2430
G1 X74.872 Y79.799 E3.57700
G1 X99.512 Y65.625 E4.39745
G1 X101.992 Y64.642 E4.47443
G1 X102.901 Y64.386 E4.50170
G1 X105.534 Y63.920 E4.57886
G1 X108.146 Y63.893 E4.65426
G1 X109.245 Y63.992 E4.68612
G1 X111.433 Y64.403 E4.75037
G1 X112.252 Y64.640 E4.77498
G1 X114.831 Y65.672 E4.85516
G1 X117.418 Y67.272 E4.94295
G1 X119.753 Y69.379 E5.03373
G1 X121.419 Y71.525 E5.11213
G1 X121.967 Y72.398 E5.14187
G1 X123.201 Y74.974 E5.22434
G1 X124.010 Y77.862 E5.31089
G1 X124.300 Y80.828 E5.39691
G1 X124.299 Y109.181 E6.21524
G1 X123.998 Y112.177 E6.30215
G1 X123.088 Y115.296 E6.39594
G1 X121.654 Y118.116 E6.48725
G1 X120.094 Y120.204 E6.56248
G1 X119.430 Y120.918 E6.59063
G1 X117.477 Y122.662 E6.66620
G1 X115.280 Y124.053 E6.74124
G1 X114.447 Y124.486 E6.76834
G1 X112.333 Y125.308 E6.83382
G1 X111.415 Y125.578 E6.86145
G1 X108.874 Y126.041 E6.93597
G1 X105.883 Y126.081 E7.02233
G1 X105.053 Y125.994 E7.04641
G1 X102.471 Y125.490 E7.12234
G1 X99.364 Y124.278 E7.21860
G1 X74.868 Y110.179 E8.03437
G1 X72.450 Y108.643 E8.11705
G1 X70.489 Y106.879 E8.19316
G1 X69.856 Y106.177 E8.22043
G1 X68.270 Y104.033 E8.29742
G1 X67.060 Y101.663 E8.37424
G1 X66.712 Y100.778 E8.40168
G1 X66.001 Y98.207 E8.47868
G1 X65.701 Y94.763 E8.57846
G1 X65.927 Y92.240 E8.65156
G1 X66.108 Y91.319 E8.67865
G1 X66.857 Y88.784 E8.75493
G1 X68.020 Y86.390 E8.83175
G1 X68.516 Y85.579 E8.85919
G1 X70.127 Y83.476 E8.93566
G1 X72.567 Y81.256 E9.03089
G1 F4320
G1 X74.872 Y79.799 E7.23196
G1 X76.877 Y78.645 E5.70589
G1 E5.53089 F3000.00000
G92 E0
G1 X99.344 Y81.024 F5400.000
G1 E3.50000 F3000.00000
G1 F2430
G1 X99.570 Y79.162 E3.55414
G1 X100.235 Y77.408 E3.60827
G1 X101.301 Y75.865 E3.66241
G1 X102.705 Y74.621 E3.71655
G1 X104.366 Y73.749 E3.77069
G1 X106.187 Y73.300 E3.82482
G1 X108.063 Y73.300 E3.87896
G1 X109.884 Y73.749 E3.93310
G1 X111.545 Y74.621 E3.98724
G1 X112.949 Y75.865 E4.04137
G1 X114.014 Y77.408 E4.09551
G1 X114.679 Y79.162 E4.14965
G1 X114.905 Y81.024 E4.20379
G1 X114.679 Y82.886 E4.25792
G1 X114.014 Y84.640 E4.31206
G1 X112.949 Y86.184 E4.36620
G1 X111.545 Y87.428 E4.42034
G1 X109.884 Y88.299 E4.47447
G1 X108.063 Y88.748 E4.52861
G1 X106.187 Y88.748 E4.58275
G1 X104.366 Y88.299 E4.63689
G1 X102.705 Y87.428 E4.69102
G1 X101.301 Y86.184 E4.74516
G1 X100.235 Y84.640 E4.79930
G1 X99.570 Y82.886 E4.85344
G1 X99.351 Y81.084 E4.90584
G1 X99.706 Y81.041 F5400.000
G1 F2430
G1 X99.920 Y79.248 E4.95794
G1 X100.554 Y77.576 E5.00958
G1 X101.570 Y76.103 E5.06121
G1 X102.909 Y74.917 E5.11285
G1 X104.493 Y74.086 E5.16448
G1 X106.230 Y73.657 E5.21611
G1 X108.019 Y73.657 E5.26775
G1 X109.756 Y74.086 E5.31938
G1 X111.340 Y74.917 E5.37102
G1 X112.679 Y76.103 E5.42265
G1 X113.696 Y77.576 E5.47429
G1 X114.330 Y79.248 E5.52592
G1 X114.546 Y81.024 E5.57756
G1 X114.330 Y82.800 E5.62919
G1 X113.696 Y84.473 E5.68083
G1 X112.679 Y85.945 E5.73246
G1 X111.340 Y87.132 E5.78410
G1 X109.756 Y87.963 E5.83573
G1 X108.019 Y88.391 E5.88736
G1 X106.230 Y88.391 E5.93900
G1 X104.493 Y87.963 E5.99063
G1 X102.909 Y87.132 E6.04227
G1 X101.570 Y85.945 E6.09390
G1 X100.554 Y84.473 E6.14554
G1 X99.920 Y82.800 E6.19717
G1 X99.713 Y81.100 E6.24659
G1 X100.068 Y81.057 F5400.000
G1 F2430
G1 X100.269 Y79.334 E6.29666
G1 X100.872 Y77.743 E6.34579
G1 X101.839 Y76.342 E6.39492
G1 X103.114 Y75.213 E6.44406
G1 X104.621 Y74.422 E6.49319
G1 X106.274 Y74.015 E6.54232
G1 X107.976 Y74.015 E6.59145
G1 X109.629 Y74.422 E6.64058
G1 X111.136 Y75.213 E6.68971
G1 X112.410 Y76.342 E6.73885
G1 X113.377 Y77.743 E6.78798
G1 X113.981 Y79.334 E6.83711
G1 X114.186 Y81.024 E6.88624
G1 X113.981 Y82.714 E6.93537
G1 X113.377 Y84.306 E6.98450
G1 X112.410 Y85.707 E7.03364
G1 X111.136 Y86.835 E7.08277
G1 X109.629 Y87.627 E7.13190
G1 X107.976 Y88.034 E7.18103
G1 X106.274 Y88.034 E7.23016
G1 X104.621 Y87.627 E7.27930
G1 X103.114 Y86.835 E7.32843
G1 X101.839 Y85.707 E7.37756
G1 X100.872 Y84.306 E7.42669
G1 X100.269 Y82.714 E7.47582
G1 X100.075 Y81.117 E7.52226
G1 X100.429 Y81.074 F5400.000
G1 F2430
G1 X100.618 Y79.420 E7.57029
G1 X101.191 Y77.910 E7.61692
G1 X102.109 Y76.580 E7.66355
G1 X103.318 Y75.509 E7.71018
G1 X104.748 Y74.758 E7.75681
G1 X106.317 Y74.372 E7.80344
G1 X107.933 Y74.372 E7.85007
G1 X109.501 Y74.758 E7.89669
G1 X110.932 Y75.509 E7.94332
G1 X112.141 Y76.580 E7.98995
G1 X113.059 Y77.910 E8.03658
G1 X113.632 Y79.420 E8.08321
G1 X113.826 Y81.024 E8.12984
G1 X113.632 Y82.628 E8.17647
G1 X113.059 Y84.139 E8.22310
G1 X112.141 Y85.468 E8.26973
G1 X110.932 Y86.539 E8.31635
G1 X109.501 Y87.290 E8.36298
G1 X107.933 Y87.677 E8.40961
G1 X106.317 Y87.677 E8.45624
G1 X104.748 Y87.290 E8.50287
G1 X103.318 Y86.539 E8.54950
G1 X102.109 Y85.468 E8.59613
G1 X101.191 Y84.139 E8.64276
G1 X100.618 Y82.628 E8.68939
G1 X100.437 Y81.133 E8.73284
G1 X100.082 Y80.876 F5400.000
G1 F4320
G1 X100.618 Y79.420 E7.59649
G1 X101.191 Y77.910 E6.53068
G1 X102.109 Y76.580 E5.46486
G1 X102.173 Y76.523 E5.40784
G1 E5.23284 F3000.00000
G92 E0
G1 X97.401 Y81.024 F5400.000
G1 E3.50000 F3000.00000
G1 F2430
G1 X97.567 Y79.238 E3.55179
G1 X98.058 Y77.512 E3.60358
G1 X98.858 Y75.906 E3.65537
G1 X99.939 Y74.474 E3.70715
G1 X101.265 Y73.265 E3.75894
G1 X102.791 Y72.320 E3.81073
G1 X104.464 Y71.672 E3.86252
G1 X106.226 Y71.343 E3.91427
G1 X108.042 Y71.346 E3.96667
G1 X109.786 Y71.672 E4.01788
G1 X111.459 Y72.320 E4.06966
G1 X112.984 Y73.265 E4.12145
G1 X114.310 Y74.474 E4.17324
G1 X115.392 Y75.906 E4.22503
G1 X116.192 Y77.512 E4.27682
G1 X116.683 Y79.238 E4.32861
G1 X116.848 Y81.024 E4.38040
G1 X116.683 Y82.811 E4.43218
G1 X116.192 Y84.537 E4.48397
G1 X115.392 Y86.143 E4.53576
G1 X114.310 Y87.575 E4.58755
G1 X112.984 Y88.784 E4.63934
G1 X111.459 Y89.728 E4.69113
G1 X109.786 Y90.376 E4.74291
G1 X108.022 Y90.706 E4.79470
G1 X106.228 Y90.706 E4.84649
G1 X104.464 Y90.376 E4.89828
G1 X102.791 Y89.728 E4.95007
G1 X101.265 Y88.784 E5.00186
G1 X99.939 Y87.575 E5.05365
G1 X98.859 Y86.144 E5.10540
G1 X98.053 Y84.517 E5.15779
G1 X97.567 Y82.811 E5.20900
G1 X97.407 Y81.084 E5.25906
G1 X97.051 Y81.117 F5400.000
G1 F2430
G1 X97.043 Y81.024 E5.26175
G1 X97.215 Y79.172 E5.31544
G1 X97.724 Y77.382 E5.36914
G1 X98.553 Y75.717 E5.42284
G1 X99.674 Y74.232 E5.47654
G1 X101.049 Y72.979 E5.53024
G1 X102.631 Y71.999 E5.58394
G1 X104.366 Y71.327 E5.63764
G1 X106.194 Y70.985 E5.69131
G1 X108.075 Y70.989 E5.74561
G1 X109.884 Y71.327 E5.79872
G1 X111.619 Y71.999 E5.85242
G1 X113.201 Y72.979 E5.90612
G1 X114.575 Y74.232 E5.95982
G1 X115.697 Y75.717 E6.01351
G1 X116.526 Y77.382 E6.06721
G1 X117.035 Y79.172 E6.12091
G1 X117.207 Y81.024 E6.17461
G1 X117.035 Y82.877 E6.22831
G1 X116.526 Y84.666 E6.28201
G1 X115.697 Y86.332 E6.33571
G1 X114.575 Y87.816 E6.38941
G1 X113.201 Y89.070 E6.44310
G1 X111.619 Y90.049 E6.49680
G1 X109.884 Y90.721 E6.55050
G1 X108.055 Y91.063 E6.60420
G1 X106.195 Y91.063 E6.65790
G1 X104.366 Y90.721 E6.71160
G1 X102.631 Y90.049 E6.76530
G1 X101.049 Y89.070 E6.81899
G1 X99.674 Y87.816 E6.87269
G1 X98.554 Y86.332 E6.92637
G1 X97.718 Y84.647 E6.98067
G1 X97.215 Y82.877 E7.03378
G1 X97.057 Y81.177 E7.08306
G1 X96.701 Y81.210 F5400.000
G1 F2430
G1 X96.684 Y81.024 E7.08843
G1 X96.862 Y79.106 E7.14404
G1 X97.389 Y77.253 E7.19965
G1 X98.248 Y75.528 E7.25526
G1 X99.409 Y73.991 E7.31087
G1 X100.833 Y72.693 E7.36647
G1 X102.471 Y71.678 E7.42208
G1 X104.268 Y70.982 E7.47769
G1 X106.161 Y70.628 E7.53328
G1 X108.109 Y70.632 E7.58950
G1 X109.982 Y70.982 E7.64451
G1 X111.779 Y71.678 E7.70012
G1 X113.417 Y72.693 E7.75572
G1 X114.840 Y73.991 E7.81133
G1 X116.002 Y75.528 E7.86694
G1 X116.860 Y77.253 E7.92255
G1 X117.388 Y79.106 E7.97816
G1 X117.565 Y81.024 E8.03377
G1 X117.388 Y82.943 E8.08938
G1 X116.860 Y84.796 E8.14498
G1 X116.002 Y86.520 E8.20059
G1 X114.840 Y88.058 E8.25620
G1 X113.417 Y89.356 E8.31181
G1 X111.779 Y90.370 E8.36742
G1 X109.982 Y91.066 E8.42303
G1 X108.088 Y91.420 E8.47864
G1 X106.161 Y91.420 E8.53424
G1 X104.268 Y91.066 E8.58985
G1 X102.471 Y90.370 E8.64546
G1 X100.833 Y89.356 E8.70107
G1 X99.409 Y88.058 E8.75668
G1 X98.248 Y86.521 E8.81227
G1 X97.384 Y84.776 E8.86849
G1 X96.862 Y82.943 E8.92349
G1 X96.707 Y81.269 E8.97200
G1 X96.326 Y81.024 F5400.000
G1 F2430
G1 X96.510 Y79.040 E9.02952
G1 X97.055 Y77.123 E9.08704
G1 X97.943 Y75.339 E9.14455
G1 X99.144 Y73.749 E9.20207
G1 X100.617 Y72.406 E9.25959
G1 X102.311 Y71.357 E9.31711
G1 X104.169 Y70.637 E9.37463
G1 X106.128 Y70.271 E9.43214
G1 X108.142 Y70.275 E9.49027
G1 X110.080 Y70.637 E9.54717
G1 X111.938 Y71.357 E9.60469
G1 X113.633 Y72.406 E9.66221
G1 X115.105 Y73.749 E9.71973
G1 X116.306 Y75.339 E9.77725
G1 X117.195 Y77.123 E9.83477
G1 X117.740 Y79.040 E9.89229
G1 X117.924 Y81.024 E9.94980
G1 X117.740 Y83.009 E10.00732
G1 X117.195 Y84.925 E10.06484
G1 X116.306 Y86.709 E10.12236
G1 X115.105 Y88.300 E10.17988
G1 X113.633 Y89.642 E10.23740
G1 X111.938 Y90.691 E10.29492
G1 X110.080 Y91.411 E10.35244
G1 X108.121 Y91.777 E10.40995
G1 X106.128 Y91.777 E10.46747
G1 X104.169 Y91.411 E10.52499
G1 X102.311 Y90.691 E10.58251
G1 X100.617 Y89.642 E10.64003
G1 X99.144 Y88.300 E10.69755
G1 X97.943 Y86.709 E10.75506
G1 X97.049 Y84.905 E10.81318
G1 X96.510 Y83.009 E10.87009
G1 X96.331 Y81.084 E10.92588
G1 X96.672 Y80.824 F5400.000
G1 F4320
G1 X96.510 Y79.040 E9.57223
G1 X97.055 Y77.123 E8.25751
G1 X97.499 Y76.232 E7.60088
G1 E7.42588 F3000.00000
G92 E0
G1 X98.130 Y84.332 F5400.000
G1 E3.50000 F3000.00000
M204 S750
G1 F2430
G1 X103.491 Y89.693 E3.72214
G1 X104.328 Y90.017 E3.74843
G1 X98.159 Y83.849 E4.00401
G1 X97.956 Y83.132 E4.02584
G1 X105.212 Y90.389 E4.32651
M204 S2000
G1 F4320
G1 X101.648 Y86.825 E1.00151
G1 E0.82651 F3000.00000
G92 E0
G1 X102.935 Y89.650 F5400.000
G1 E3.50000 F3000.00000
M204 S750
G1 F2430
G1 X98.575 Y85.289 E3.68069
M204 S2000
G1 X99.320 Y86.547 F5400.000
M204 S750
G1 F2430
G1 X101.643 Y88.871 E3.77698
M204 S2000
G1 X103.125 Y87.789 F5400.000
M204 S750
G1 F2430
G1 X105.642 Y90.306 E3.88127
G1 X106.269 Y90.420 E3.89995
G1 X104.466 Y88.618 E3.97462
G1 X105.147 Y88.786 E3.99515
G1 X106.781 Y90.420 E4.06287
G1 X107.294 Y90.420 E4.07789
G1 X105.827 Y88.954 E4.13867
G1 X106.152 Y89.034 E4.14848
G1 X106.420 Y89.034 E4.15632
G1 X107.807 Y90.420 E4.21378
G1 X107.995 Y90.420 E4.21932
G1 X108.268 Y90.369 E4.22744
G1 X106.932 Y89.034 E4.28279
G1 X107.445 Y89.034 E4.29781
G1 X108.700 Y90.289 E4.34981
G1 X109.132 Y90.208 E4.36268
G1 X107.958 Y89.034 E4.41133
G1 X108.097 Y89.034 E4.41543
G1 X108.397 Y88.960 E4.42446
G1 X109.564 Y90.127 E4.47282
G1 X109.707 Y90.100 E4.47709
G1 X109.954 Y90.005 E4.48485
G1 X108.808 Y88.859 E4.53234
G1 X109.219 Y88.757 E4.54475
G1 X110.323 Y89.862 E4.59051
G1 X110.693 Y89.719 E4.60212
G1 X109.630 Y88.656 E4.64616
G1 X110.031 Y88.544 E4.65835
G1 X111.062 Y89.575 E4.70107
G1 X111.331 Y89.471 E4.70951
G1 X111.417 Y89.418 E4.71249
G1 X110.368 Y88.368 E4.75599
G1 X110.704 Y88.191 E4.76712
G1 X111.734 Y89.222 E4.80981
G1 X112.051 Y89.026 E4.82072
G1 X111.040 Y88.015 E4.86260
G1 X111.376 Y87.839 E4.87372
G1 X112.367 Y88.830 E4.91479
G1 X112.684 Y88.634 E4.92570
G1 X111.711 Y87.661 E4.96599
G1 X111.983 Y87.421 E4.97663
G1 X112.972 Y88.409 E5.01758
G1 X113.240 Y88.164 E5.02821
G1 X112.255 Y87.180 E5.06900
G1 X112.527 Y86.939 E5.07964
G1 X113.508 Y87.920 E5.12029
G1 X113.776 Y87.675 E5.13092
G1 X112.799 Y86.698 E5.17141
G1 X113.070 Y86.457 E5.18205
G1 X114.044 Y87.431 E5.22240
G1 X114.274 Y87.149 E5.23307
G1 X113.301 Y86.176 E5.27339
G1 X113.511 Y85.872 E5.28418
G1 X114.495 Y86.857 E5.32496
G1 X114.715 Y86.564 E5.33569
G1 X113.720 Y85.569 E5.37693
G1 X113.929 Y85.266 E5.38773
G1 X114.936 Y86.272 E5.42944
G1 X115.148 Y85.992 E5.43974
G1 X115.155 Y85.978 E5.44018
G1 X114.139 Y84.963 E5.48227
G1 X114.269 Y84.774 E5.48899
G1 X114.322 Y84.633 E5.49339
G1 X115.325 Y85.636 E5.53494
G1 X115.495 Y85.294 E5.54614
G1 X114.463 Y84.262 E5.58891
G1 X114.604 Y83.890 E5.60055
G1 X115.666 Y84.952 E5.64454
G1 X115.836 Y84.610 E5.65575
G1 X114.745 Y83.518 E5.70096
G1 X114.886 Y83.147 E5.71260
G1 X115.979 Y84.240 E5.75789
G1 X116.093 Y83.841 E5.77005
G1 X114.986 Y82.734 E5.81591
G1 X115.041 Y82.277 E5.82941
G1 X116.206 Y83.442 E5.87768
G1 X116.320 Y83.043 E5.88984
G1 X115.097 Y81.819 E5.94051
G1 X115.152 Y81.362 E5.95400
G1 X116.413 Y82.623 E6.00625
G1 X116.457 Y82.154 E6.02006
G1 X115.175 Y80.872 E6.07317
G1 X115.104 Y80.289 E6.09039
G1 X116.500 Y81.685 E6.14824
G1 X116.543 Y81.216 E6.16204
G1 X115.033 Y79.705 E6.22463
G1 X114.962 Y79.122 E6.24185
G1 X116.530 Y80.690 E6.30683
G1 X116.478 Y80.125 E6.32345
G1 X114.661 Y78.308 E6.39874
G1 X114.348 Y77.482 E6.42461
G1 X116.603 Y79.738 E6.51808
M204 S2000
G1 F4320
G1 X114.348 Y77.482 E4.41348
G1 X114.661 Y78.308 E3.83082
G1 X115.344 Y78.992 E3.19308
G1 E3.01808 F3000.00000
G92 E0
G1 X116.120 Y77.717 F5400.000
G1 E3.50000 F3000.00000
M204 S750
G1 F2430
G1 X110.758 Y72.355 E3.72215
G1 X109.922 Y72.031 E3.74844
G1 X116.090 Y78.200 E4.00403
G1 X116.294 Y78.916 E4.02586
G1 X109.238 Y71.860 E4.31821
G1 X108.608 Y71.743 E4.33700
G1 X110.743 Y73.878 E4.42546
G1 X109.986 Y73.480 E4.45051
G1 X109.783 Y73.430 E4.45664
G1 X107.984 Y71.632 E4.53116
G1 X107.471 Y71.631 E4.54621
G1 X109.103 Y73.263 E4.61382
G1 X108.422 Y73.095 E4.63435
G1 X106.957 Y71.630 E4.69506
G1 X106.444 Y71.629 E4.71011
G1 X107.830 Y73.015 E4.76754
G1 X107.317 Y73.015 E4.78256
G1 X105.981 Y71.679 E4.83790
G1 X105.549 Y71.760 E4.85078
G1 X106.804 Y73.015 E4.90278
G1 X106.292 Y73.015 E4.91779
G1 X105.118 Y71.841 E4.96645
G1 X104.686 Y71.921 E4.97932
G1 X105.853 Y73.089 E5.02769
G1 X105.442 Y73.190 E5.04010
G1 X104.296 Y72.044 E5.08759
G1 X103.926 Y72.187 E5.09920
G1 X105.030 Y73.291 E5.14496
G1 X104.619 Y73.393 E5.15737
G1 X103.557 Y72.330 E5.20140
G1 X103.187 Y72.473 E5.21301
G1 X104.218 Y73.504 E5.25573
G1 X103.882 Y73.681 E5.26686
G1 X102.832 Y72.631 E5.31036
G1 X102.515 Y72.827 E5.32127
G1 X103.546 Y73.857 E5.36396
G1 X103.210 Y74.033 E5.37508
G1 X102.199 Y73.023 E5.41696
G1 X101.882 Y73.219 E5.42787
G1 X102.873 Y74.210 E5.46894
G1 X102.538 Y74.387 E5.48005
G1 X101.566 Y73.415 E5.52035
G1 X101.438 Y73.494 E5.52474
G1 X101.278 Y73.640 E5.53109
G1 X102.266 Y74.628 E5.57204
G1 X101.994 Y74.869 E5.58268
G1 X101.010 Y73.884 E5.62347
G1 X100.742 Y74.129 E5.63410
G1 X101.723 Y75.110 E5.67475
G1 X101.451 Y75.350 E5.68539
G1 X100.474 Y74.373 E5.72588
G1 X100.205 Y74.618 E5.73651
G1 X101.179 Y75.591 E5.77685
G1 X101.086 Y75.674 E5.78051
G1 X100.948 Y75.873 E5.78760
G1 X99.975 Y74.900 E5.82791
G1 X99.755 Y75.192 E5.83864
G1 X100.739 Y76.176 E5.87942
G1 X100.530 Y76.480 E5.89021
G1 X99.534 Y75.484 E5.93146
G1 X99.314 Y75.776 E5.94218
G1 X100.320 Y76.783 E5.98389
G1 X100.111 Y77.086 E5.99469
G1 X99.095 Y76.070 E6.03678
G1 X98.925 Y76.412 E6.04798
G1 X99.927 Y77.415 E6.08953
G1 X99.786 Y77.787 E6.10118
G1 X98.754 Y76.755 E6.14395
G1 X98.584 Y77.097 E6.15515
G1 X99.645 Y78.158 E6.19914
G1 X99.505 Y78.530 E6.21078
G1 X98.413 Y77.439 E6.25599
G1 X98.326 Y77.615 E6.26177
G1 X98.271 Y77.809 E6.26766
G1 X99.364 Y78.902 E6.31294
G1 X99.291 Y79.093 E6.31895
G1 X99.264 Y79.315 E6.32548
G1 X98.157 Y78.208 E6.37135
G1 X98.043 Y78.607 E6.38351
G1 X99.209 Y79.772 E6.43178
G1 X99.153 Y80.229 E6.44527
G1 X97.930 Y79.006 E6.49595
G1 X97.849 Y79.290 E6.50461
G1 X97.837 Y79.425 E6.50858
G1 X99.098 Y80.686 E6.56083
G1 X99.056 Y81.024 E6.57081
G1 X99.075 Y81.176 E6.57529
G1 X97.793 Y79.894 E6.62841
